X:1
T:Title
%%score { ( 1 3 ) | 2 }
L:1/8
M:4/4
K:C
V:1 treble nm="Grand Piano"
V:3 treble 
V:2 bass 
V:1
 z4 z2[Q:1/4=106] G2 | [G,CEG]3 [G,CEG] [G,CEG]2 [G,CEG]2 | [G,B,FG]4 [G,B,FG]2 [G,B,FG]2 | %3
 [G,DFG]3 [G,B,DG] [G,CEG]2 [G,DFG]2 | [G,CEG]6 [G,CEG]2 | [G,CEG]3 [G,CEG] [G,CEG]2 [EGA]2 | %6
 [EGB]4 [EGB]2 [EGB]2 | [B,FAB]3 [B,_E^FB] [B,=EGB]2 [B,FAB]2 |[M:3/4] [B,EGB]6 |[M:1/4] G2 | %10
[M:4/4] d3 B A2 G2 | [Ec]4 [EG]2 G2 | d3 [GB] [Gc]2 d2 | e6 e2 | e3 d c2 [GB]2 | %15
 [Ad]4 [FA]2 [Af]2 | e3 c e2 d2 |[M:3/4] [Ec]6 |[M:1/4] G2 |[M:4/4] E6 z2 | D6 z2 | C3 D E2 F2 | %22
 G6 z2 | [Ec]2 [FB][Gc] A2 [GA]2 | [^Fd]2 [G^c][Ad] B2 G2 | A[FB][Gc][Ad] [Ge]2 [Fd]2 | %26
[M:3/4] [Ec]6 |] %27
V:2
 z4 z2 G,2 | C,3 C, C,2 C,2 | D,4 D,2 D,2 | G,,3 G,, G,,2 G,,2 | C,6 C,2 | C,3 C, C,2 [C,G,]2 | %6
 [B,,G,]4 [B,,G,]2 [B,,G,]2 | B,,3 B,, B,,2 B,,2 |[M:3/4] E,6 |[M:1/4] G,2 | %10
[M:4/4][K:treble] [G,B,F]3 [G,DF] [G,CF]2 [G,B,F]2 | [C,C]4 [C,C]2 [E,C]2 | %12
 [G,B,F]3 [F,D] [E,C]2[K:treble] [G,B,G]2 | [CG]6 [CG]2 | [CG]3 [G,B,F][K:bass] [A,CE]2 [E,C]2 | %15
 [F,C]4 [F,C]2 [D,C]2 | [G,CG]3 [A,CE] [G,CG]2 [G,B,F]2 |[M:3/4][K:bass] [C,C]6 |[M:1/4] z2 | %19
[M:4/4] z2 [C,G,]2 [C,G,]2 z2 | z2 [G,,F,]2 [G,,F,]2 [G,,E,]2 | C,3 D, E,2 F,2 | %22
 G,2 [F,B,]2 [E,C]2 [D,B,]2 | [C,C]2 [D,G,][D,_B,] [F,A,]2 [_E,C]2 | %24
 [D,D]2 [E,A,][^F,C] [G,B,D]2 [E,B,]2 | [F,CF][D,D][E,C][F,C] [G,C]2 [G,,B,]2 |[M:3/4] [C,C]6 |] %27
V:3
 x8 | x8 | x8 | x8 | x8 | x8 | x8 | x8 |[M:3/4] x6 |[M:1/4] x2 |[M:4/4] x8 | x8 | x8 | x8 | x8 | %15
 x8 | x8 |[M:3/4] x6 |[M:1/4] x2 |[M:4/4] z2 C2 C2 G2 | z2 B,2 B,2 [B,G]2 | x8 | z2 D2 E2 [FG]2 | %23
 x8 | x8 | x8 |[M:3/4] x6 |] %27

